assets/icons/linkedin.svg

<svg width="24" height="24" viewBox="0 0 24 24" fill="none" xmlns="http://www.w3.org/2000/svg">
<path d="M5.36576 7.71167H0.738301C0.532927 7.71167 0.366516 7.88539 0.366516 8.09962V23.612C0.366516 23.8263 0.532927 24 0.738301 24H5.36576C5.57114 24 5.73755 23.8263 5.73755 23.612V8.09962C5.73755 7.88539 5.57114 7.71167 5.36576 7.71167Z" fill="white"/>
<path d="M3.05355 0C1.36981 0 0 1.42781 0 3.18282C0 4.9386 1.36981 6.36695 3.05355 6.36695C4.73595 6.36695 6.10464 4.93852 6.10464 3.18282C6.10471 1.42781 4.73595 0 3.05355 0Z" fill="white"/>
<path d="M17.136 7.32605C15.2775 7.32605 13.9036 8.15975 13.0703 9.10705V8.09954C13.0703 7.88532 12.9038 7.71159 12.6985 7.71159H8.26687C8.06149 7.71159 7.89508 7.88532 7.89508 8.09954V23.612C7.89508 23.8263 8.06149 23.9999 8.26687 23.9999H12.8842C13.0896 23.9999 13.256 23.8263 13.256 23.612V15.9369C13.256 13.3506 13.9292 12.343 15.657 12.343C17.5387 12.343 17.6882 13.9583 17.6882 16.07V23.612C17.6882 23.8263 17.8546 24 18.06 24H22.6791C22.8844 24 23.0508 23.8263 23.0508 23.612V15.1032C23.0508 11.2575 22.3481 7.32605 17.136 7.32605Z" fill="white"/>
</svg>

<svg width="24" height="24" fill="none" xmlns="http://www.w3.org/2000/svg"><path d="M5.366 7.712H.738a.38.38 0 0 0-.371.388v15.512A.38.38 0 0 0 .738 24h4.628a.38.38 0 0 0 .372-.388V8.1a.38.38 0 0 0-.372-.388ZM3.054 0C1.37 0 0 1.428 0 3.183c0 1.756 1.37 3.184 3.054 3.184 1.682 0 3.05-1.428 3.05-3.184C6.105 1.428 4.737 0 3.055 0ZM17.136 7.326c-1.858 0-3.232.834-4.066 1.781V8.1a.38.38 0 0 0-.372-.388H8.267a.38.38 0 0 0-.372.388v15.512a.38.38 0 0 0 .372.388h4.617a.38.38 0 0 0 .372-.388v-7.675c0-2.586.673-3.594 2.401-3.594 1.882 0 2.031 1.615 2.031 3.727v7.542a.38.38 0 0 0 .372.388h4.62a.38.38 0 0 0 .37-.388v-8.509c0-3.845-.702-7.777-5.914-7.777Z" fill="#fff"/></svg>
